X:28
T:Saratoga, the salute
M:6/8
K:D
FG |: ABA ABA | d4 cB | ABA ABA | e4 FG | \
ABA ABA | d4 cB | ABA GFE p| FDD D3 :| \
fed fed | e2 A A3 | fed fef | g2 e e3 | \
fed fef | gfg (a3 | a6 | a3) AAA | B2 c dAF | D6 ||
